; generated by PrusaSlicer 2.9.1 on 2025-05-31 at 18:23:33 UTC

; 

; external perimeters extrusion width = 0.45mm
; perimeters extrusion width = 0.45mm
; infill extrusion width = 0.45mm
; solid infill extrusion width = 0.45mm
; top infill extrusion width = 0.40mm
; support material extrusion width = 0.35mm
; first layer extrusion width = 0.42mm

; external perimeters extrusion width = 0.45mm
; perimeters extrusion width = 0.45mm
; infill extrusion width = 0.45mm
; solid infill extrusion width = 0.45mm
; top infill extrusion width = 0.40mm
; support material extrusion width = 0.35mm
; first layer extrusion width = 0.42mm

M190 S60 ; set bed temperature and wait for it to be reached
M104 S220 ; set temperature
;TYPE:Custom
G28 ; home all axes
G1 Z5 F5000 ; lift nozzle
M109 S220 ; set temperature and wait for it to be reached
G21 ; set units to millimeters
G90 ; use absolute coordinates
M82 ; use absolute distances for extrusion
G92 E0
; Filament gcode
M107
;LAYER_CHANGE
;Z:0.35
;HEIGHT:0.35
G1 E-4 F2400
G92 E0
G1 Z.35 F7800
G1 X72.261 Y71.323
G1 E4 F2400
;TYPE:Skirt/Brim
;WIDTH:0.42
G1 F1800
G1 X73.364 Y70.324 E4.07842
G1 X74.472 Y69.479 E4.15185
G1 X75.795 Y68.623 E4.23489
G1 X77.339 Y67.783 E4.32751
G1 X80.2 Y66.615 E4.49035
G1 X82.41 Y65.964 E4.61175
G1 X85.609 Y65.366 E4.78324
G1 X87.705 Y65.186 E4.8941
G1 X88.971 Y65.186 E4.96081
G1 X90.527 Y65.309 E5.04306
G1 X91.752 Y65.498 E5.10838
G1 X93.855 Y66.072 E5.22325
G1 X124.501 Y78.049 E6.9571
G1 X126.998 Y79.247 E7.10304
G1 X128.609 Y80.249 E7.20301
G1 X130.569 Y81.801 E7.33475
G1 X131.629 Y82.829 E7.41256
G1 X132.362 Y83.681 E7.47179
G1 X133.21 Y84.873 E7.54888
G1 X133.776 Y85.845 E7.60815
G1 X134.558 Y87.523 E7.7057
G1 X134.992 Y88.805 E7.77702
G1 X135.371 Y90.529 E7.87004
G1 X135.515 Y91.875 E7.94137
G1 X135.469 Y104.915 E8.62852
G1 X135.313 Y106.263 E8.70003
G1 X134.918 Y107.989 E8.79333
G1 X134.471 Y109.271 E8.86487
G1 X133.659 Y110.974 E8.96429
G1 X133.084 Y111.94 E9.02353
G1 X132.224 Y113.124 E9.10064
G1 X131.484 Y113.97 E9.15987
G1 X129.658 Y115.631 E9.28994
G1 X128.25 Y116.651 E9.38156
G1 X127.153 Y117.327 E9.44946
G1 X125.236 Y118.279 E9.56225
G1 X123.728 Y118.904 E9.64827
G1 X93.572 Y129.027 E11.32449
G1 X92.404 Y129.357 E11.38845
G1 X90.527 Y129.687 E11.48888
G1 X88.089 Y129.822 E11.61755
G1 X85.302 Y129.595 E11.7649
G1 X82.41 Y129.033 E11.92015
G1 X79.592 Y128.163 E12.07556
G1 X76.981 Y127.035 E12.22544
G1 X74.472 Y125.518 E12.37994
G1 X72.715 Y124.103 E12.49882
G1 X71.085 Y122.382 E12.62373
G1 X70.427 Y121.485 E12.68235
G1 X69.679 Y120.245 E12.75866
G1 X69.192 Y119.245 E12.81727
G1 X68.594 Y117.667 E12.90619
G1 X68.294 Y116.591 E12.96505
G1 X68.032 Y115.161 E13.04166
G1 X67.931 Y114.049 E13.1005
G1 X67.931 Y80.948 E14.84476
G1 X68.032 Y79.835 E14.90365
G1 X68.294 Y78.405 E14.98026
G1 X68.594 Y77.329 E15.03912
G1 X69.569 Y74.974 E15.17343
G1 X70.197 Y73.878 E15.23999
G1 X71.43 Y72.223 E15.34874
G1 X72.22 Y71.367 E15.41012
G1 E11.41012 F2400
G92 E0
G1 X76.722 Y76.023 F7800
G1 E4 F2400
G1 F1800
G1 X77.743 Y75.036 E4.07483
G1 X78.969 Y74.198 E4.15308
G1 X80.146 Y73.55 E4.22388
G1 X81.961 Y72.793 E4.32751
G1 X84.028 Y72.17 E4.44127
G1 X86.181 Y71.754 E4.55682
G1 X87.86 Y71.598 E4.64568
G1 X89.185 Y71.62 E4.71551
G1 X91.818 Y72.164 E4.85719
G1 X94.174 Y73.468 E4.99909
G1 X95.221 Y74.525 E5.07749
G1 X96.076 Y75.737 E5.15565
G1 X97.024 Y78.701 E5.31963
G1 X97.07 Y115.867 E7.2781
G1 X96.683 Y117.843 E7.3842
G1 X95.791 Y119.711 E7.49328
G1 X94.043 Y121.622 E7.62975
G1 X93.544 Y121.954 E7.66133
G1 X90.984 Y123.095 E7.80902
G1 X89.562 Y123.342 E7.88507
G1 X88.204 Y123.408 E7.95671
G1 X86.078 Y123.227 E8.06915
G1 X83.993 Y122.818 E8.18111
G1 X81.959 Y122.203 E8.29308
G1 X80.093 Y121.42 E8.39972
G1 X79.029 Y120.835 E8.4637
G1 X77.89 Y120.076 E8.53583
G1 X76.505 Y118.822 E8.63428
G1 X75.382 Y117.274 E8.73506
G1 X74.643 Y115.469 E8.83784
G1 X74.355 Y113.711 E8.93171
G1 X74.343 Y81.106 E10.64984
G1 X75.022 Y78.483 E10.79262
G1 X76.206 Y76.522 E10.91333
G1 X76.679 Y76.064 E10.94802
G1 X76.916 Y76.31 F7800
G1 F1800
G1 X77.971 Y75.295 E11.02516
G1 X79.157 Y74.488 E11.10075
G1 X80.288 Y73.865 E11.16879
G1 X82.086 Y73.115 E11.27145
G1 X84.119 Y72.503 E11.38333
G1 X86.221 Y72.097 E11.49614
G1 X87.882 Y71.942 E11.58405
G1 X89.162 Y71.964 E11.65151
G1 X91.723 Y72.496 E11.78934
G1 X93.947 Y73.728 E11.92331
G1 X94.948 Y74.736 E11.99817
G1 X95.779 Y75.914 E12.07414
G1 X96.687 Y78.779 E12.23251
G1 X96.725 Y115.851 E14.18603
G1 X96.349 Y117.755 E14.2883
G1 X95.492 Y119.538 E14.39255
G1 X93.804 Y121.372 E14.5239
G1 X93.391 Y121.645 E14.54999
G1 X90.864 Y122.771 E14.69577
G1 X89.515 Y123.001 E14.76788
G1 X88.222 Y123.063 E14.83609
G1 X86.135 Y122.887 E14.94646
G1 X84.085 Y122.485 E15.05654
G1 X82.084 Y121.881 E15.16668
G1 X80.235 Y121.106 E15.27233
G1 X79.202 Y120.536 E15.3345
G1 X78.111 Y119.811 E15.40353
G1 X76.773 Y118.604 E15.49849
G1 X75.674 Y117.088 E15.59716
G1 X74.969 Y115.357 E15.69565
G1 X74.7 Y113.698 E15.78421
G1 X74.688 Y81.129 E17.50044
G1 X75.35 Y78.595 E17.63845
G1 X76.489 Y76.721 E17.75401
G1 X76.872 Y76.352 E17.78204
G1 X77.108 Y76.598 F7800
G1 F1800
G1 X78.199 Y75.554 E17.86161
G1 X79.344 Y74.778 E17.9345
G1 X80.429 Y74.18 E17.99978
G1 X82.21 Y73.437 E18.10147
G1 X84.21 Y72.835 E18.21153
G1 X86.262 Y72.44 E18.32165
G1 X87.905 Y72.287 E18.4086
G1 X89.14 Y72.309 E18.47369
G1 X91.579 Y72.811 E18.60491
G1 X93.719 Y73.989 E18.73363
G1 X94.693 Y74.968 E18.8064
G1 X95.481 Y76.09 E18.87865
G1 X96.35 Y78.858 E19.03153
G1 X96.381 Y115.834 E20.97999
G1 X96.015 Y117.665 E21.07838
G1 X95.193 Y119.364 E21.17784
G1 X93.596 Y121.097 E21.30202
G1 X93.237 Y121.336 E21.32475
G1 X90.744 Y122.447 E21.46857
G1 X89.468 Y122.659 E21.53673
G1 X88.239 Y122.719 E21.60157
G1 X86.192 Y122.547 E21.70982
G1 X84.176 Y122.153 E21.81806
G1 X82.209 Y121.559 E21.92633
G1 X80.377 Y120.791 E22.03101
G1 X79.374 Y120.238 E22.09136
G1 X78.332 Y119.546 E22.15727
G1 X77.041 Y118.386 E22.24873
G1 X75.985 Y116.939 E22.34313
G1 X75.296 Y115.246 E22.43945
G1 X75.045 Y113.684 E22.52282
G1 X75.033 Y81.151 E24.23715
G1 X75.676 Y78.707 E24.37032
G1 X76.771 Y76.92 E24.48076
G1 X77.065 Y76.639 E24.50219
G1 X77.299 Y76.886 F7800
G1 F1800
G1 X78.426 Y75.814 E24.58415
G1 X79.53 Y75.068 E24.65436
G1 X80.571 Y74.495 E24.71698
G1 X82.335 Y73.758 E24.81772
G1 X84.301 Y73.168 E24.92588
G1 X86.302 Y72.782 E25.03327
G1 X87.927 Y72.631 E25.11927
G1 X89.118 Y72.653 E25.18204
G1 X91.437 Y73.126 E25.30676
G1 X93.493 Y74.25 E25.43023
G1 X94.419 Y75.179 E25.49935
G1 X95.183 Y76.266 E25.56936
G1 X96.013 Y78.935 E25.71665
G1 X96.036 Y115.816 E27.6601
G1 X95.681 Y117.575 E27.75466
G1 X94.894 Y119.19 E27.84933
G1 X93.358 Y120.847 E27.96839
G1 X90.624 Y122.122 E28.12735
G1 X89.423 Y122.317 E28.19147
G1 X88.256 Y122.374 E28.25304
G1 X86.249 Y122.206 E28.35917
G1 X84.267 Y121.82 E28.46557
G1 X82.334 Y121.238 E28.57195
G1 X80.519 Y120.477 E28.67566
G1 X78.553 Y119.28 E28.79695
G1 X77.309 Y118.168 E28.88487
G1 X76.276 Y116.753 E28.97719
G1 X75.624 Y115.135 E29.06911
G1 X75.39 Y113.67 E29.14729
G1 X75.378 Y81.173 E30.85973
G1 X76.003 Y78.821 E30.98797
G1 X77.053 Y77.121 E31.09326
G1 X77.256 Y76.927 E31.10806
G1 X77.489 Y77.174 F7800
G1 F1800
G1 X78.652 Y76.075 E31.19238
G1 X79.716 Y75.358 E31.25999
G1 X80.712 Y74.809 E31.31992
G1 X82.459 Y74.08 E31.41967
G1 X84.392 Y73.501 E31.526
G1 X86.342 Y73.125 E31.63065
G1 X87.949 Y72.975 E31.7157
G1 X89.096 Y72.998 E31.77615
G1 X91.296 Y73.442 E31.89442
G1 X93.267 Y74.511 E32.01257
G1 X94.164 Y75.411 E32.07953
G1 X94.885 Y76.442 E32.14583
G1 X95.676 Y79.011 E32.28748
G1 X95.691 Y115.799 E34.22603
G1 X95.348 Y117.484 E34.31664
G1 X94.596 Y119.015 E34.40652
G1 X93.121 Y120.595 E34.52042
G1 X90.505 Y121.798 E34.67215
G1 X89.379 Y121.975 E34.73221
G1 X88.273 Y122.029 E34.79056
G1 X86.287 Y121.864 E34.89557
G1 X84.358 Y121.487 E34.99914
G1 X82.459 Y120.916 E35.10363
G1 X80.661 Y120.163 E35.20635
G1 X79.721 Y119.641 E35.26301
G1 X78.773 Y119.014 E35.3229
G1 X77.576 Y117.949 E35.40733
G1 X76.588 Y116.604 E35.49527
G1 X75.951 Y115.024 E35.58504
G1 X75.735 Y113.657 E35.65797
G1 X75.723 Y81.196 E37.36851
G1 X76.329 Y78.935 E37.49186
G1 X77.333 Y77.322 E37.59198
G1 X77.446 Y77.216 E37.60014
G1 X77.679 Y77.463 F7800
G1 F1800
G1 X78.878 Y76.336 E37.68685
G1 X79.902 Y75.649 E37.75183
G1 X80.854 Y75.124 E37.80912
G1 X82.584 Y74.402 E37.9079
G1 X84.482 Y73.834 E38.0123
G1 X86.383 Y73.467 E38.11432
G1 X87.971 Y73.32 E38.19836
G1 X89.073 Y73.342 E38.25644
G1 X91.202 Y73.775 E38.37092
G1 X93.041 Y74.773 E38.48118
G1 X93.89 Y75.622 E38.54445
G1 X94.586 Y76.617 E38.60844
G1 X95.339 Y79.087 E38.74451
G1 X95.346 Y115.782 E40.67816
G1 X95.028 Y117.352 E40.76257
G1 X94.298 Y118.84 E40.84991
G1 X92.914 Y120.318 E40.95661
G1 X90.428 Y121.461 E41.10079
G1 X89.352 Y121.631 E41.15819
G1 X88.29 Y121.685 E41.21422
G1 X86.343 Y121.523 E41.31717
G1 X84.449 Y121.154 E41.41885
G1 X82.584 Y120.595 E41.52145
G1 X80.803 Y119.848 E41.62322
G1 X79.894 Y119.343 E41.67802
G1 X78.992 Y118.748 E41.73496
G1 X77.843 Y117.73 E41.81585
G1 X76.879 Y116.417 E41.90168
G1 X76.278 Y114.914 E41.98698
G1 X76.079 Y113.643 E42.05477
G1 X76.068 Y81.219 E43.76336
G1 X76.655 Y79.051 E43.88172
G1 X77.613 Y77.525 E43.97667
G1 X77.635 Y77.504 E43.97827
G1 X77.892 Y77.728 F7800
G1 F1800
G1 X79.102 Y76.598 E44.06551
G1 X80.075 Y75.947 E44.1272
G1 X80.995 Y75.438 E44.1826
G1 X82.708 Y74.724 E44.28039
G1 X84.573 Y74.167 E44.38296
G1 X86.423 Y73.81 E44.48224
G1 X87.993 Y73.664 E44.56533
G1 X89.051 Y73.687 E44.62109
G1 X91.061 Y74.091 E44.72913
G1 X92.815 Y75.035 E44.83409
G1 X93.636 Y75.855 E44.89524
G1 X94.288 Y76.791 E44.95535
G1 X95.001 Y79.162 E45.08582
G1 X95.001 Y115.764 E47.01457
G1 X94.695 Y117.261 E47.09509
G1 X94 Y118.663 E47.17755
G1 X92.704 Y120.044 E47.27735
G1 X90.351 Y121.124 E47.41378
G1 X89.307 Y121.288 E47.46947
G1 X88.307 Y121.34 E47.52224
G1 X86.4 Y121.183 E47.62307
G1 X84.54 Y120.822 E47.72291
G1 X82.709 Y120.273 E47.82364
G1 X80.945 Y119.534 E47.92442
G1 X80.067 Y119.045 E47.97738
G1 X79.211 Y118.481 E48.0314
G1 X78.109 Y117.51 E48.1088
G1 X77.191 Y116.268 E48.19018
G1 X76.606 Y114.805 E48.27321
G1 X76.424 Y113.63 E48.33587
G1 X76.413 Y81.242 E50.04256
G1 X76.981 Y79.167 E50.15593
G1 X77.86 Y77.779 E50.2425
G1 X78.151 Y77.964 F7800
G1 F1800
G1 X78.171 Y77.933 E50.24444
G1 X79.327 Y76.86 E50.32755
G1 X81.137 Y75.753 E50.43935
G1 X82.833 Y75.046 E50.53618
G1 X84.663 Y74.5 E50.63681
G1 X86.463 Y74.153 E50.73341
G1 X88.015 Y74.008 E50.81555
G1 X89.028 Y74.031 E50.86894
G1 X90.922 Y74.407 E50.97069
G1 X92.59 Y75.298 E51.07034
G1 X93.362 Y76.065 E51.12769
G1 X93.989 Y76.966 E51.18553
G1 X94.656 Y79.187 E51.30773
G1 X94.656 Y115.747 E53.23427
G1 X94.362 Y117.169 E53.31079
G1 X93.703 Y118.486 E53.38839
G1 X92.489 Y119.774 E53.48166
G1 X90.232 Y120.799 E53.61228
G1 X88.301 Y120.995 E53.71456
G1 X86.438 Y120.84 E53.81307
G1 X84.631 Y120.489 E53.91007
G1 X82.834 Y119.951 E54.00892
G1 X81.088 Y119.22 E54.10866
G1 X80.241 Y118.746 E54.15981
G1 X79.429 Y118.214 E54.21096
G1 X78.375 Y117.29 E54.28482
G1 X77.482 Y116.082 E54.36398
G1 X76.934 Y114.696 E54.44252
G1 X76.769 Y113.617 E54.50004
G1 X76.758 Y81.266 E56.20478
G1 X77.306 Y79.285 E56.31309
G1 X78.118 Y78.015 E56.39252
G1 X78.407 Y78.202 F7800
G1 F1800
G1 X78.448 Y78.139 E56.39648
G1 X79.55 Y77.123 E56.47546
G1 X80.422 Y76.544 E56.53062
G1 X81.279 Y76.068 E56.58228
G1 X82.957 Y75.367 E56.67811
G1 X84.753 Y74.833 E56.77685
G1 X86.504 Y74.495 E56.87082
G1 X88.037 Y74.353 E56.95195
G1 X89.005 Y74.376 E57.00297
G1 X90.783 Y74.724 E57.09844
G1 X92.365 Y75.561 E57.19275
G1 X93.107 Y76.298 E57.24786
G1 X93.69 Y77.139 E57.30178
G1 X94.311 Y79.212 E57.41581
G1 X94.311 Y115.729 E59.34008
G1 X94.029 Y117.075 E59.41255
G1 X93.407 Y118.308 E59.48532
G1 X92.274 Y119.5 E59.57198
G1 X90.156 Y120.462 E59.69456
G1 X88.318 Y120.65 E59.79192
G1 X86.494 Y120.5 E59.88836
G1 X84.721 Y120.156 E59.98353
G1 X82.958 Y119.63 E60.08048
G1 X81.247 Y118.914 E60.17822
G1 X79.628 Y117.932 E60.278
G1 X78.64 Y117.069 E60.34713
G1 X77.794 Y115.933 E60.42177
G1 X77.262 Y114.588 E60.49799
G1 X77.114 Y113.604 E60.55043
G1 X77.103 Y81.29 E62.25322
G1 X77.631 Y79.403 E62.35648
G1 X78.375 Y78.252 E62.4287
G1 X78.663 Y78.441 F7800
G1 F1800
G1 X78.725 Y78.346 E62.43468
G1 X79.773 Y77.387 E62.50954
G1 X80.596 Y76.842 E62.56156
G1 X81.421 Y76.382 E62.61133
G1 X83.081 Y75.689 E62.70612
G1 X84.843 Y75.166 E62.80297
G1 X86.544 Y74.838 E62.89426
G1 X88.059 Y74.697 E62.97444
G1 X88.982 Y74.72 E63.02309
G1 X90.646 Y75.041 E63.11239
G1 X92.142 Y75.824 E63.20137
G1 X92.833 Y76.508 E63.2526
G1 X93.391 Y77.313 E63.30421
G1 X93.966 Y79.237 E63.41003
G1 X93.966 Y115.71 E65.33198
G1 X93.697 Y116.981 E65.40044
G1 X93.112 Y118.128 E65.46829
G1 X92.049 Y119.237 E65.54924
G1 X90.038 Y120.137 E65.66534
G1 X88.334 Y120.306 E65.75557
G1 X86.55 Y120.159 E65.8499
G1 X84.811 Y119.823 E65.94323
G1 X83.083 Y119.308 E66.03825
G1 X81.407 Y118.608 E66.13396
G1 X80.598 Y118.157 E66.18277
G1 X79.827 Y117.65 E66.2314
G1 X78.906 Y116.848 E66.29575
G1 X78.085 Y115.746 E66.36816
G1 X77.59 Y114.481 E66.43974
G1 X77.459 Y113.592 E66.48709
G1 X77.448 Y81.314 E68.18799
G1 X77.956 Y79.523 E68.28609
G1 X78.63 Y78.491 E68.35104
G1 X78.917 Y78.68 F7800
G1 F1800
G1 X79 Y78.555 E68.35895
G1 X79.994 Y77.652 E68.42972
G1 X80.77 Y77.14 E68.47871
G1 X81.563 Y76.697 E68.52658
G1 X83.205 Y76.011 E68.62035
G1 X84.933 Y75.499 E68.71532
G1 X86.585 Y75.181 E68.80397
G1 X88.081 Y75.041 E68.88315
G1 X88.959 Y75.064 E68.92943
G1 X90.51 Y75.359 E69.01263
G1 X91.918 Y76.088 E69.09618
G1 X92.579 Y76.741 E69.14514
G1 X93.091 Y77.486 E69.19278
G1 X93.621 Y79.262 E69.29045
G1 X93.621 Y115.693 E71.21019
G1 X93.379 Y116.845 E71.27222
G1 X92.817 Y117.948 E71.33745
G1 X91.825 Y118.973 E71.41262
G1 X89.965 Y119.799 E71.51986
G1 X88.328 Y119.961 E71.60654
G1 X86.588 Y119.816 E71.69855
G1 X84.901 Y119.49 E71.78909
G1 X83.207 Y118.986 E71.88222
G1 X81.566 Y118.302 E71.9759
G1 X80.025 Y117.368 E72.07085
G1 X79.17 Y116.625 E72.13054
G1 X78.397 Y115.598 E72.19827
G1 X77.919 Y114.374 E72.26751
G1 X77.804 Y113.58 E72.30979
G1 X77.792 Y81.338 E74.00879
G1 X78.279 Y79.645 E74.10162
G1 X78.884 Y78.73 E74.15942
G1 X79.169 Y78.922 F7800
G1 F1800
G1 X79.274 Y78.765 E74.16937
G1 X80.215 Y77.917 E74.23612
G1 X80.944 Y77.437 E74.28211
G1 X81.705 Y77.011 E74.32807
G1 X83.33 Y76.333 E74.42085
G1 X85.023 Y75.832 E74.51389
G1 X86.625 Y75.523 E74.59986
G1 X88.102 Y75.386 E74.67802
G1 X88.937 Y75.409 E74.72204
G1 X90.376 Y75.678 E74.79918
G1 X91.695 Y76.353 E74.87726
G1 X92.304 Y76.951 E74.92224
G1 X92.792 Y77.66 E74.9676
G1 X93.277 Y79.287 E75.05706
G1 X93.277 Y115.674 E76.97448
G1 X93.047 Y116.75 E77.03246
G1 X92.522 Y117.766 E77.09272
G1 X91.602 Y118.708 E77.16211
G1 X89.892 Y119.461 E77.26057
G1 X88.345 Y119.616 E77.3425
G1 X86.644 Y119.476 E77.43244
G1 X84.991 Y119.157 E77.52115
G1 X83.331 Y118.664 E77.6124
G1 X81.725 Y117.996 E77.70406
G1 X80.956 Y117.567 E77.75046
G1 X80.224 Y117.086 E77.79662
G1 X79.435 Y116.403 E77.85161
G1 X78.687 Y115.41 E77.91712
G1 X78.248 Y114.269 E77.98154
G1 X78.149 Y113.568 E78.01885
G1 X78.137 Y81.363 E79.7159
G1 X78.603 Y79.767 E79.80351
G1 X79.136 Y78.971 E79.85399
G1 X79.42 Y79.164 F7800
G1 F1800
G1 X79.547 Y78.977 E79.8659
G1 X80.415 Y78.198 E79.92736
G1 X81.864 Y77.317 E80.01672
G1 X83.454 Y76.655 E80.10748
G1 X85.096 Y76.169 E80.19772
G1 X86.665 Y75.866 E80.28193
G1 X88.124 Y75.73 E80.35915
G1 X88.914 Y75.753 E80.4008
G1 X90.243 Y75.997 E80.472
G1 X91.473 Y76.618 E80.54461
G1 X92.05 Y77.185 E80.58724
G1 X92.492 Y77.832 E80.62853
G1 X92.932 Y79.312 E80.70989
G1 X92.932 Y115.655 E82.62499
G1 X92.715 Y116.653 E82.67881
G1 X92.229 Y117.583 E82.7341
G1 X91.38 Y118.442 E82.79774
G1 X89.819 Y119.124 E82.88751
G1 X88.361 Y119.271 E82.96473
G1 X86.682 Y119.133 E83.0535
G1 X85.081 Y118.824 E83.13942
G1 X83.455 Y118.342 E83.22879
G1 X81.884 Y117.689 E83.31844
G1 X80.423 Y116.803 E83.40848
G1 X79.698 Y116.18 E83.45885
G1 X79 Y115.263 E83.51958
G1 X78.577 Y114.164 E83.58163
G1 X78.494 Y113.556 E83.61397
G1 X78.482 Y81.388 E85.30907
G1 X78.925 Y79.892 E85.39129
G1 X79.386 Y79.214 E85.43449
